X:1
T:Every Word I Believe
T:Every Word I Believe
T:William James Kirkpatrick
T:Johnson Oatman, Jr., 1899
T:Public Domain Courtesy of the Cyber Hymnal™
T:Public Domain Courtesy of the Cyber Hymnal™
C:William James Kirkpatrick
Z:Public Domain
Z:Courtesy of the Cyber Hymnal™
%%score ( 1 2 ) ( 3 4 )
L:1/8
Q:1/4=80
M:4/4
K:Ab
V:1 treble 
V:2 treble 
V:3 bass 
V:4 bass 
V:1
 [CE]/[CE]/ | [CE][DF][CE][B,D] [A,C] [CE]2 [CE]/[CE]/ | [DF][FA][FA][DF] [CE]3 [CE]/[CE]/ | %3
w: 1.~If you|ask me why I’m hap- py As I|jour- ney down life’s road, Why it|
w: 2.~We are|not al- lowed to wan- der Thro’ this|world with- out a guide, For, to|
w: 3.~He in-|forms us for our com- fort That thro’|life He’ll be our friend, That if|
w: 4.~He has|told us of a ci- ty Where the|streets are paved with gold, Where the|
 [CE][CA][EA][EB] [Ec] [Ec]2 [Ec]/[EB]/ | [EA][EA][Ec][Ec] [EB]3 [EB]/[Ec]/ | %5
w: is I do not car- ry On the|way a heav- y load; ’Tis be-|
w: keep our feet from stray- ing, His own|Word has been ap- plied; And we|
w: we will on- ly trust Him, He’ll go|with us to the end, That His|
w: faith- ful shall be ga- thered And their|Sav- ior’s face be- hold; He has|
 [Ed][Ed][Ec][EB] [Ec] [Ee]2 [EA]/[EB]/ | [Ac][EA][FA][DF] [CE]3 [CE] | %7
w: cause my Sav- ior tells me That my|bur- den He’ll re- ceive. And|
w: read here that the sen- tence Of a|sin- ner He’ll re- prieve, And|
w: Spir- it will be with us While we|do not slight nor grieve, And|
w: prom- ised at its por- tals That our|souls He will re- ceive, And|
 [EA]3 [EB] [Ec][Ee][_Ge][Fd] | c2 [Gc]>[GB] [EA]4 ||"^Refrain" [Ac]3 [Ad] [Ac]E[EA][EB] x | %10
w: I be- lieve it, ev- ery|word I be- lieve.||
w: I be- lieve it, ev- ery|word I be- lieve.|I be- lieve it, ev- ery|
w: I be- lieve it, ev- ery|word I be- lieve.||
w: I be- lieve it, ev- ery|word I be- lieve.||
 [Ac]2 [Ac]>[Ad] [Ac]4 | [GB]3 [Ac] [GB]E[EG][EA] x | [GB]2 [GB]>[Ac] [GB]4 | %13
w: |||
w: word I be- lieve,|I re- ceive it, ev- ery|word I re- ceive;|
w: |||
w: |||
 [Ac]3 [EB] [EB] [EA]2 [EG] | [DF][FA][FA][DF] [CE]3 [CE] | [EA]3 [EB] [Ec][Ee][_Ge][Fd] | %16
w: |||
w: Je- sus tells me my|wants He will re- lieve, And|I be- lieve it, ev- ery|
w: |||
w: |||
 c2 [Gc]>[GB] [EA]3 |] %17
w: |
w: word I be- lieve.|
w: |
w: |
V:2
 x | x8 | x8 | x8 | x8 | x8 | x8 | x8 | (EA) x6 || x5 E x3 | x8 | x5 E x3 | x8 | x8 | x8 | x8 | %16
 (EA) x5 |] %17
V:3
 [A,,A,]/[A,,A,]/ | [A,,A,][A,,A,][A,,A,][A,,E,] [A,,E,] [A,,A,]2 [A,,A,]/[A,,A,]/ | %2
 [D,A,][D,A,][D,A,][D,A,] [A,,A,]3 [A,,A,]/[A,,A,]/ | %3
 [A,,A,][A,,A,][C,A,][E,G,] A, A,2 [A,,A,]/[B,,A,]/ | %4
 [C,A,][C,A,][A,,A,][A,,A,] [E,G,]3 [E,G,]/[E,A,]/ | %5
 [E,B,][E,B,][E,G,][E,G,] A, [A,C]2 [A,C]/[A,D]/ | [A,E][A,C][D,D][D,A,] [A,,A,]3 A, | %7
 (z [E,G,])A,[A,C] [C,A,][D,A,] x2 | [E,A,]2 [E,D]>[E,D] [A,,C]4 || E3 z F[A,E][A,C][A,C][A,D] | %10
 [A,E]2 [A,E]>[A,F] [A,E]4 | D3 z E[E,D][E,D][E,B,][E,C] | [E,D]2 [E,D]>[E,E] [E,D]4 | %13
 [A,E]3 [A,D] [A,D] [A,C]2 [C,A,] | [D,A,][D,D][D,D][D,A,] [A,,A,]3 A, | %15
 (z [E,G,])A,[A,C] [C,A,][D,A,] x2 | [E,A,]2 [E,D]>[E,D] [A,,C]3 |] %17
V:4
 x | x8 | x8 | x4 A, A,2 x | x8 | x4 A, x3 | x8 | (C3 A,, C,)A, x2 | x8 || (A,A,) A,2- x5 | x8 | %11
 (E,E,) E,2- x5 | x8 | x8 | x8 | (C3 A,, C,)A, x2 | x7 |] %17

